src/packages/tokens/img/btcb.svg

<svg width="24" height="24" viewBox="0 0 24 24" fill="none" xmlns="http://www.w3.org/2000/svg">
<g clip-path="url(#clip0_8_2934)">
<path d="M23.6408 14.9029C22.0379 21.3315 15.5261 25.2438 9.09602 23.6407C2.66858 22.038 -1.24421 15.5266 0.359461 9.09838C1.96163 2.66907 8.47345 -1.24364 14.9016 0.359095C21.3313 1.96183 25.2437 8.47401 23.6408 14.9029Z" fill="url(#paint0_linear_8_2934)"/>
<path d="M17.2791 10.3045C17.518 8.70776 16.3021 7.8494 14.6396 7.27678L15.1789 5.1138L13.8621 4.78568L13.3371 6.89166C12.9909 6.80541 12.6354 6.72403 12.2821 6.64341L12.8109 4.52356L11.4949 4.19543L10.9552 6.35766C10.6687 6.29241 10.3874 6.22791 10.1143 6.16004L10.1158 6.15329L8.2999 5.69992L7.94961 7.10615C7.94961 7.10615 8.92659 7.33003 8.90596 7.3439C9.43927 7.47702 9.53566 7.8299 9.51953 8.10964C8.04187 14.035 9.51953 8.10964 8.04187 14.035C7.97662 14.197 7.81122 14.4399 7.43843 14.3477C7.45156 14.3668 6.48133 14.1088 6.48133 14.1088L5.82764 15.6159L7.54119 16.0431C7.85998 16.1229 8.17239 16.2066 8.47992 16.2853L7.93499 18.473L9.25025 18.8012L9.78993 16.6367C10.1492 16.7342 10.498 16.8242 10.8393 16.9089L10.3015 19.0633L11.6183 19.3914L12.1632 17.2078C14.4085 17.6327 16.097 17.4613 16.8077 15.4307C17.3804 13.7957 16.7792 12.8526 15.5978 12.2376C16.4581 12.0392 17.1062 11.4734 17.2791 10.3045ZM14.2705 14.5228C13.8636 16.1578 11.1104 15.2739 10.2179 15.0523L10.9409 12.154C11.8335 12.3767 14.6958 12.8177 14.2705 14.5228ZM14.6778 10.2809C14.3065 11.7681 12.015 11.0125 11.2717 10.8272L11.9273 8.19852C12.6706 8.38377 15.0645 8.72951 14.6778 10.2809Z" fill="white"/>
</g>
<defs>
<linearGradient id="paint0_linear_8_2934" x1="0" y1="0" x2="0" y2="24" gradientUnits="userSpaceOnUse">
<stop stop-color="#F9AA4B"/>
<stop offset="1" stop-color="#F7931A"/>
</linearGradient>
<clipPath id="clip0_8_2934">
<rect width="24" height="24" fill="white"/>
</clipPath>
</defs>
</svg>

<svg xmlns="http://www.w3.org/2000/svg" width="24" height="24" fill="none" xmlns:v="https://vecta.io/nano"><g clip-path="url(#B)"><path d="M23.641 14.903a12 12 0 0 1-14.545 8.738A12 12 0 0 1 .359 9.098 12 12 0 0 1 14.902.359a12 12 0 0 1 8.739 14.544z" fill="url(#A)"/><path d="M17.279 10.305c.239-1.597-.977-2.455-2.639-3.028l.539-2.163-1.317-.328-.525 2.106-1.055-.248.529-2.12-1.316-.328-.54 2.162-.841-.198.002-.007L8.3 5.7l-.35 1.406.956.238c.533.133.63.486.614.766l-1.478 5.925c-.065.162-.231.405-.603.313.013.019-.957-.239-.957-.239l-.654 1.507 1.714.427.939.242-.545 2.188 1.315.328.54-2.165 1.049.272-.538 2.154 1.317.328.545-2.184c2.245.425 3.934.254 4.645-1.777.573-1.635-.029-2.578-1.21-3.193.86-.198 1.508-.764 1.681-1.933zm-3.009 4.218c-.407 1.635-3.16.751-4.053.53l.723-2.898c.893.223 3.755.664 3.33 2.369zm.407-4.242c-.371 1.487-2.663.732-3.406.546l.656-2.629c.743.185 3.137.531 2.75 2.082z" fill="#fff"/></g><defs><linearGradient id="A" x1="0" y1="0" x2="0" y2="24" gradientUnits="userSpaceOnUse"><stop stop-color="#f9aa4b"/><stop offset="1" stop-color="#f7931a"/></linearGradient><clipPath id="B"><path fill="#fff" d="M0 0h24v24H0z"/></clipPath></defs></svg>
